teeny/solid/bed-single.svg

<svg viewBox="0 0 15 15" xmlns="http://www.w3.org/2000/svg"><g><path d="M0 15h1v-4h13v4h1V4h-1v3H1V0H0v15Z"/><path d="M6 6H2V5h4v1Z"/></g></svg>

<svg width="15" height="15" viewBox="0 0 15 15" fill="none" xmlns="http://www.w3.org/2000/svg">
<path d="M0 15H1V11H14V15H15V4H14V7H1V0H0V15Z" fill="black"/>
<path d="M6 6H2V5H6V6Z" fill="black"/>
</svg>
